images/icon_2.svg

<svg xmlns="http://www.w3.org/2000/svg" width="341" height="340" viewBox="0 0 341 340" fill="none">
<path d="M151.085 70.5337C178.529 43.8478 221.847 42.3385 251.129 67.1509C264.826 78.7559 274.565 96.011 276.826 113.982C301.436 121.938 321.579 142.281 327.86 167.579H327.878L328.148 168.739C329.575 174.879 329.999 181.228 329.453 187.511L329.098 191.655V191.659C326.383 222.494 305.326 248.699 276.088 257.438L276.08 257.441C274.131 258.011 272.144 258.522 270.121 258.946L270.122 258.947C269.171 259.155 268.2 259.337 267.218 259.462C264.259 259.976 261.265 260.311 258.237 260.432L256.84 260.488L256.686 259.099C256.076 253.638 256.382 248.255 257.2 243.402L257.399 242.22L258.595 242.154C261.667 241.981 264.713 241.521 267.673 240.801L267.688 240.797L267.703 240.794C271.087 240.048 274.393 238.927 277.563 237.513L277.573 237.508C297.959 228.617 312.934 207.907 311.493 182.284L311.427 181.287C309.845 160.393 295.989 141.286 276.495 133.542V133.541C275.183 133.021 273.651 132.625 271.972 132.206C270.329 131.795 268.547 131.363 266.889 130.779C263.58 129.614 260.309 127.683 259.348 123.542L259.346 123.536C258.687 120.635 258.433 117.72 258.107 114.917C257.777 112.078 257.367 109.275 256.424 106.372V106.371C242.634 64.0057 185.605 54.5101 158.283 89.8843L158.282 89.8862C157.471 90.9323 156.722 92.1661 155.901 93.5083C155.099 94.8178 154.232 96.2257 153.24 97.4673C152.244 98.7133 151.062 99.8714 149.585 100.639C148.08 101.422 146.346 101.757 144.341 101.469L144.334 101.468C143.366 101.325 142.235 100.955 141.092 100.517C139.931 100.073 138.656 99.519 137.384 98.9644C134.78 97.8287 132.227 96.7103 130.24 96.23H130.239C94.5852 87.6023 60.6691 113.996 60.179 150.677C60.1658 151.796 60.3108 153.083 60.4924 154.536C60.6695 155.952 60.8807 157.517 60.9543 159.044C61.0995 162.056 60.7458 165.442 58.0618 167.756L58.054 167.762C57.4549 168.272 56.6499 168.712 55.843 169.094C55.0154 169.486 54.0765 169.866 53.1487 170.23C51.2255 170.985 49.4144 171.652 48.2278 172.314C30.0407 182.513 23.891 205.669 34.6311 223.547L35.1555 224.395L35.1565 224.397C46.6731 242.544 72.5768 246.405 89.1418 232.779C89.9987 232.074 90.7714 231.235 91.6008 230.317C92.4041 229.428 93.2792 228.443 94.2502 227.609C95.2379 226.761 96.3862 226.012 97.7913 225.607C99.2077 225.199 100.783 225.17 102.579 225.609H102.578C104.38 226.042 105.757 226.804 106.788 227.859C107.812 228.906 108.406 230.15 108.792 231.403C109.173 232.636 109.375 233.96 109.559 235.175C109.749 236.431 109.924 237.59 110.234 238.681C115.099 255.621 131.996 266.051 150.559 268.542C169.125 271.032 188.691 265.482 198.643 251.261L198.646 251.256C200.968 247.967 202.785 244.161 203.923 239.862L204.135 239.061L204.925 238.814C209.838 237.275 215.187 239.527 217.435 244.236L217.643 244.699L217.647 244.709C217.788 245.052 217.945 245.397 218.117 245.743L218.295 246.089L218.323 246.141L218.347 246.196C218.799 247.241 219.304 248.252 219.861 249.2L220.291 249.932L219.883 250.678C219.483 251.41 218.914 252.625 218.364 253.814C217.849 254.924 217.318 256.083 217.037 256.58L217.038 256.581C216.423 257.69 215.75 258.759 215.086 259.756L215.087 259.757C213.322 262.439 211.377 264.871 209.288 267.144L209.284 267.148C193.822 283.86 169.711 290.081 147.309 286.793C125.475 283.589 104.984 271.307 95.5334 250.515C62.7369 271.762 18.8041 252.796 11.6487 214.101L11.6497 214.1C11.4264 212.901 11.3682 211.572 11.2717 210.54C11.1676 209.426 11.0142 208.505 10.6614 207.719L10.4729 207.3L10.552 206.848C10.9305 204.673 11.0103 202.246 11.1116 199.686C11.2045 197.337 11.3158 194.874 11.7444 192.614L11.8352 192.16C12.2519 190.219 13.299 187.397 14.4377 184.705C15.5864 181.989 16.8808 179.281 17.845 177.535L17.8459 177.533C22.964 168.286 31.9714 159.566 41.8274 155.362C39.4646 107.861 80.812 69.7422 128.123 76.8813L128.124 76.8823C130.779 77.2841 133.33 78.0072 135.781 78.7202C137.997 79.3651 140.123 79.9968 142.28 80.4399C143.671 79.0097 144.957 77.4657 146.29 75.8677C147.781 74.08 149.332 72.2271 151.085 70.5337Z" fill="black" stroke="black" stroke-width="3"/>
<path d="M124.746 166.245C111.287 168.555 113.831 190.974 129.154 188.753C143.531 186.68 141.489 163.372 124.746 166.245Z" fill="black"/>
<path d="M173.333 166.245C159.874 168.555 162.418 190.974 177.741 188.753C192.117 186.68 190.076 163.372 173.333 166.245Z" fill="black"/>
<path d="M222.333 166.245C208.874 168.555 211.418 190.974 226.741 188.753C241.117 186.68 239.076 163.372 222.333 166.245Z" fill="black"/>
<path d="M257.056 229.811C259.11 224.836 264.545 222.489 269.213 224.808L269.212 224.809C273.798 227.069 275.731 232.923 273.695 237.858L273.681 237.891L273.654 237.961C273.631 238.022 273.598 238.104 273.554 238.206C272.884 240 270.304 247.268 270.541 254.912L270.542 254.918C270.694 260.915 272.562 267.014 278.233 271L278.238 271.003C281.451 273.286 282.985 277.457 282.148 281.478C281.31 285.528 278.257 288.657 274.371 289.194L274.37 289.193C273.582 289.329 267.879 290.081 259.888 289.721C255.181 289.509 249.664 288.899 243.899 287.554L243.899 287.555C227.487 283.767 214.735 275.356 206.467 262.893L205.921 262.065C203.232 257.915 201.073 253.346 199.415 248.36C199.401 248.331 199.387 248.3 199.375 248.267L199.339 248.138C197.781 243.098 200.11 237.493 204.824 235.566L204.844 235.558L204.864 235.551C204.946 235.522 205.026 235.487 205.156 235.433C205.275 235.385 205.425 235.324 205.592 235.271L205.602 235.269L205.611 235.266C210.219 233.911 214.971 236.566 216.583 241.414L216.585 241.421C216.703 241.784 216.836 242.149 216.983 242.515L217.135 242.882L217.15 242.917L217.162 242.951C217.441 243.767 217.75 244.565 218.089 245.333L218.437 246.092L218.44 246.099C223.689 257.286 233.385 264.659 247.428 268.045L247.428 268.045C249.891 268.631 252.314 269.04 254.624 269.336C253.295 265.379 252.611 261.257 252.402 257.219L252.402 257.218C252.095 251.775 252.612 246.439 253.571 241.646C253.976 239.392 254.514 237.266 255.126 235.322C255.714 233.294 256.375 231.448 257.056 229.811ZM199.554 248.586C199.557 248.59 199.56 248.593 199.561 248.595C199.561 248.594 199.559 248.592 199.557 248.59C199.555 248.587 199.552 248.584 199.549 248.579L199.554 248.586Z" fill="black" stroke="black" stroke-width="2"/>
</svg>

<svg xmlns="http://www.w3.org/2000/svg" width="341" height="340" fill="none" viewBox="0 0 341 340"><path fill="#000" stroke="#000" stroke-width="3" d="M151.085 70.534c27.444-26.686 70.762-28.196 100.044-3.383 13.697 11.605 23.436 28.86 25.697 46.831 24.61 7.956 44.753 28.299 51.034 53.597h.018l.27 1.16c1.427 6.14 1.851 12.489 1.305 18.772l-.355 4.144v.004c-2.715 30.835-23.772 57.04-53.01 65.779l-.008.003a79 79 0 0 1-5.959 1.505l.001.001a33 33 0 0 1-2.904.515 68 68 0 0 1-8.981.97l-1.397.056-.154-1.389c-.61-5.461-.304-10.844.514-15.697l.199-1.182 1.196-.066a50.5 50.5 0 0 0 9.078-1.353l.015-.004.015-.003c3.384-.746 6.69-1.867 9.86-3.281l.01-.005c20.386-8.891 35.361-29.601 33.92-55.224l-.066-.997c-1.582-20.894-15.438-40.001-34.932-47.745v-.001c-1.312-.52-2.844-.916-4.523-1.335-1.643-.411-3.425-.843-5.083-1.427-3.309-1.165-6.58-3.096-7.541-7.237l-.002-.006c-.659-2.901-.913-5.816-1.239-8.619-.33-2.839-.74-5.642-1.683-8.545v-.001c-13.79-42.365-70.819-51.86-98.141-16.487l-.001.002c-.811 1.046-1.56 2.28-2.381 3.622-.802 1.31-1.669 2.718-2.661 3.96-.996 1.245-2.178 2.403-3.655 3.171-1.505.783-3.239 1.118-5.244.83l-.007-.001c-.968-.143-2.099-.513-3.242-.951-1.161-.444-2.436-.998-3.708-1.553-2.604-1.135-5.157-2.254-7.144-2.734h-.001c-35.654-8.628-69.57 17.766-70.06 54.447-.013 1.119.132 2.406.313 3.859.178 1.416.389 2.981.462 4.508.145 3.012-.208 6.398-2.892 8.712l-.008.006c-.6.51-1.404.95-2.211 1.332-.828.392-1.767.772-2.694 1.136-1.924.755-3.735 1.422-4.921 2.084-18.187 10.199-24.337 33.355-13.597 51.233l.525.848v.002c11.517 18.147 37.42 22.008 53.986 8.382.857-.705 1.63-1.544 2.459-2.462.803-.889 1.678-1.874 2.65-2.708.987-.848 2.135-1.597 3.54-2.002 1.417-.408 2.992-.437 4.788.002h-.001c1.802.433 3.179 1.195 4.21 2.25 1.024 1.047 1.618 2.291 2.004 3.544.381 1.233.583 2.557.767 3.772.19 1.256.365 2.415.675 3.506 4.865 16.94 21.762 27.37 40.325 29.861 18.566 2.49 38.132-3.06 48.084-17.281l.003-.005c2.322-3.289 4.139-7.095 5.277-11.394l.212-.801.79-.247c4.913-1.539 10.262.713 12.51 5.422l.208.463.004.01q.212.515.47 1.034l.178.346.028.052.024.055a28 28 0 0 0 1.514 3.004l.43.732-.408.746c-.4.732-.969 1.947-1.519 3.136-.515 1.11-1.046 2.269-1.327 2.766l.001.001a46 46 0 0 1-1.952 3.175l.001.001c-1.765 2.682-3.71 5.114-5.799 7.387l-.004.004c-15.462 16.712-39.573 22.933-61.975 19.645-21.834-3.204-42.325-15.486-51.776-36.278-32.796 21.247-76.729 2.281-83.884-36.414v-.001c-.223-1.199-.28-2.528-.377-3.56-.104-1.114-.258-2.035-.61-2.821l-.19-.419.08-.452c.379-2.175.458-4.602.56-7.162.092-2.349.204-4.812.632-7.072l.091-.454c.417-1.941 1.464-4.763 2.603-7.455 1.148-2.716 2.443-5.424 3.407-7.17v-.002c5.119-9.247 14.126-17.967 23.982-22.171-2.362-47.501 38.985-85.62 86.296-78.48h.001c2.655.402 5.206 1.125 7.657 1.838 2.216.645 4.342 1.277 6.499 1.72 1.391-1.43 2.677-2.974 4.01-4.572 1.491-1.788 3.042-3.64 4.795-5.334Z"/><path fill="#000" d="M124.746 166.245c-13.459 2.31-10.915 24.729 4.408 22.508 14.377-2.073 12.335-25.381-4.408-22.508M173.333 166.245c-13.459 2.31-10.915 24.729 4.408 22.508 14.376-2.073 12.335-25.381-4.408-22.508M222.333 166.245c-13.459 2.31-10.915 24.729 4.408 22.508 14.376-2.073 12.335-25.381-4.408-22.508"/><path fill="#000" stroke="#000" stroke-width="2" d="M257.056 229.811c2.054-4.975 7.489-7.322 12.157-5.003l-.001.001c4.586 2.26 6.519 8.114 4.483 13.049l-.014.033-.027.07a6 6 0 0 1-.1.245c-.67 1.794-3.25 9.062-3.013 16.706l.001.006c.152 5.997 2.02 12.096 7.691 16.082l.005.003c3.213 2.283 4.747 6.454 3.91 10.475-.838 4.05-3.891 7.179-7.777 7.716l-.001-.001c-.788.136-6.491.888-14.482.528-4.707-.212-10.224-.822-15.989-2.167v.001c-16.412-3.788-29.164-12.199-37.432-24.662l-.546-.828c-2.689-4.15-4.848-8.719-6.506-13.705a1 1 0 0 1-.04-.093l-.036-.129c-1.558-5.04.771-10.645 5.485-12.572l.02-.008.02-.007c.082-.029.162-.064.292-.118.119-.048.269-.109.436-.162l.01-.002.009-.003c4.608-1.355 9.36 1.3 10.972 6.148l.002.007q.177.545.398 1.094l.152.367.015.035.012.034c.279.816.588 1.614.927 2.382l.348.759.003.007c5.249 11.187 14.945 18.56 28.988 21.946 2.463.586 4.886.995 7.196 1.291-1.329-3.957-2.013-8.079-2.222-12.117v-.001c-.307-5.443.21-10.779 1.169-15.572a51 51 0 0 1 1.555-6.324 52 52 0 0 1 1.93-5.511Zm-57.502 18.775.007.009-.004-.005-.008-.011Z"/></svg>
